images/icons/dark/localization.svg

<?xml version="1.0" encoding="UTF-8"?>
<svg width="80px" height="80px" viewBox="0 0 80 80" version="1.1" xmlns="http://www.w3.org/2000/svg" xmlns:xlink="http://www.w3.org/1999/xlink">
    <!-- Generator: Sketch 49.1 (51147) - http://www.bohemiancoding.com/sketch -->
    <title>Atoms/Icons/80/Localization</title>
    <desc>Created with Sketch.</desc>
    <defs>
        <path d="M49.6299,61.9302 C52.4799,56.5602 55.4699,48.4302 55.8699,37.5002 L66.2999,37.5002 C65.4199,48.2402 58.8499,57.3802 49.6299,61.9302 Z M38.9199,37.5002 L50.8599,37.5002 C50.2899,51.8102 44.7999,60.8502 42.1099,64.4502 C41.0699,64.6602 39.9999,64.8102 38.9199,64.8802 L38.9199,37.5002 Z M20.6509,60.5002 C20.4299,60.3802 20.2199,60.2402 20.0099,60.1002 L13.0299,61.0502 L6.2399,61.9702 L7.6199,54.8802 L9.0899,47.3402 C8.8599,46.8502 8.6509,46.3602 8.4599,45.8602 C7.4299,43.2302 6.7699,40.4302 6.5399,37.5002 L16.9699,37.5002 C17.3699,48.4302 20.3599,56.5602 23.2199,61.9302 C22.3399,61.5002 21.4799,61.0302 20.6509,60.5002 Z M23.2099,8.0702 C20.3599,13.4402 17.3699,21.5702 16.9699,32.5002 L6.5399,32.5002 C7.4199,21.7602 13.9899,12.6202 23.2099,8.0702 Z M33.9199,32.5002 L21.9799,32.5002 C22.5499,18.1902 28.0399,9.1502 30.7299,5.5502 C31.7699,5.3402 32.8399,5.1902 33.9199,5.1202 L33.9199,32.5002 Z M66.2999,32.5002 L55.8699,32.5002 C55.4699,21.5702 52.4799,13.4402 49.6299,8.0702 C58.8499,12.6202 65.4199,21.7602 66.2999,32.5002 Z M38.9199,5.1202 C40.0099,5.1902 41.0699,5.3402 42.1199,5.5502 L42.1299,5.5502 C44.8199,9.1302 50.2899,18.1102 50.8599,32.5002 L38.9199,32.5002 L38.9199,5.1202 Z M33.9199,37.5002 L33.9199,64.8802 C32.8299,64.8102 31.7699,64.6602 30.7199,64.4502 L30.7099,64.4502 C28.0199,60.8702 22.5499,51.8902 21.9799,37.5002 L33.9199,37.5002 Z M44.9299,1.0402 C44.5099,0.9402 44.0899,0.8402 43.6699,0.7502 C41.3299,0.2602 38.9099,0.0002 36.4199,0.0002 C33.9299,0.0002 31.5099,0.2602 29.1699,0.7502 C28.7499,0.8402 28.3299,0.9402 27.9099,1.0402 C12.6899,4.8402 1.4199,18.6102 1.4199,35.0002 C1.4199,39.5502 2.2899,43.9102 3.8799,47.9002 L-0.0001,67.8602 L18.9009,65.3002 C21.6799,66.9202 24.7099,68.1602 27.9099,68.9602 C28.3299,69.0602 28.7499,69.1602 29.1699,69.2502 C31.5099,69.7402 33.9299,70.0002 36.4199,70.0002 C38.9099,70.0002 41.3299,69.7402 43.6699,69.2502 C44.0899,69.1602 44.5099,69.0602 44.9299,68.9602 C60.1509,65.1602 71.4199,51.3902 71.4199,35.0002 C71.4199,18.6102 60.1509,4.8402 44.9299,1.0402 Z" id="path-1"></path>
        <filter x="-1.4%" y="-1.4%" width="105.6%" height="102.9%" filterUnits="objectBoundingBox" id="filter-3">
            <feOffset dx="2" dy="0" in="SourceAlpha" result="shadowOffsetOuter1"></feOffset>
            <feColorMatrix values="0 0 0 0 0.0901960784   0 0 0 0 0.882352941   0 0 0 0 0.996078431  0 0 0 1 0" type="matrix" in="shadowOffsetOuter1"></feColorMatrix>
        </filter>
        <path d="M51.6299,61.9302 C54.4799,56.5602 57.4699,48.4302 57.8699,37.5002 L68.2999,37.5002 C67.4199,48.2402 60.8499,57.3802 51.6299,61.9302 Z M40.9199,37.5002 L52.8599,37.5002 C52.2899,51.8102 46.7999,60.8502 44.1099,64.4502 C43.0699,64.6602 41.9999,64.8102 40.9199,64.8802 L40.9199,37.5002 Z M22.6509,60.5002 C22.4299,60.3802 22.2199,60.2402 22.0099,60.1002 L15.0299,61.0502 L8.2399,61.9702 L9.6199,54.8802 L11.0899,47.3402 C10.8599,46.8502 10.6509,46.3602 10.4599,45.8602 C9.4299,43.2302 8.7699,40.4302 8.5399,37.5002 L18.9699,37.5002 C19.3699,48.4302 22.3599,56.5602 25.2199,61.9302 C24.3399,61.5002 23.4799,61.0302 22.6509,60.5002 Z M25.2099,8.0702 C22.3599,13.4402 19.3699,21.5702 18.9699,32.5002 L8.5399,32.5002 C9.4199,21.7602 15.9899,12.6202 25.2099,8.0702 Z M35.9199,32.5002 L23.9799,32.5002 C24.5499,18.1902 30.0399,9.1502 32.7299,5.5502 C33.7699,5.3402 34.8399,5.1902 35.9199,5.1202 L35.9199,32.5002 Z M68.2999,32.5002 L57.8699,32.5002 C57.4699,21.5702 54.4799,13.4402 51.6299,8.0702 C60.8499,12.6202 67.4199,21.7602 68.2999,32.5002 Z M40.9199,5.1202 C42.0099,5.1902 43.0699,5.3402 44.1199,5.5502 L44.1299,5.5502 C46.8199,9.1302 52.2899,18.1102 52.8599,32.5002 L40.9199,32.5002 L40.9199,5.1202 Z M35.9199,37.5002 L35.9199,64.8802 C34.8299,64.8102 33.7699,64.6602 32.7199,64.4502 L32.7099,64.4502 C30.0199,60.8702 24.5499,51.8902 23.9799,37.5002 L35.9199,37.5002 Z M46.9299,1.0402 C46.5099,0.9402 46.0899,0.8402 45.6699,0.7502 C43.3299,0.2602 40.9099,0.0002 38.4199,0.0002 C35.9299,0.0002 33.5099,0.2602 31.1699,0.7502 C30.7499,0.8402 30.3299,0.9402 29.9099,1.0402 C14.6899,4.8402 3.4199,18.6102 3.4199,35.0002 C3.4199,39.5502 4.2899,43.9102 5.8799,47.9002 L1.9999,67.8602 L20.9009,65.3002 C23.6799,66.9202 26.7099,68.1602 29.9099,68.9602 C30.3299,69.0602 30.7499,69.1602 31.1699,69.2502 C33.5099,69.7402 35.9299,70.0002 38.4199,70.0002 C40.9099,70.0002 43.3299,69.7402 45.6699,69.2502 C46.0899,69.1602 46.5099,69.0602 46.9299,68.9602 C62.1509,65.1602 73.4199,51.3902 73.4199,35.0002 C73.4199,18.6102 62.1509,4.8402 46.9299,1.0402 Z" id="path-4"></path>
        <filter x="-0.7%" y="-0.7%" width="101.4%" height="101.4%" filterUnits="objectBoundingBox" id="filter-5">
            <feOffset dx="1" dy="0" in="SourceAlpha" result="shadowOffsetInner1"></feOffset>
            <feComposite in="shadowOffsetInner1" in2="SourceAlpha" operator="arithmetic" k2="-1" k3="1" result="shadowInnerInner1"></feComposite>
            <feColorMatrix values="0 0 0 0 1   0 0 0 0 0.152941176   0 0 0 0 0.321568627  0 0 0 0.5 0" type="matrix" in="shadowInnerInner1"></feColorMatrix>
        </filter>
    </defs>
    <g id="Atoms/Icons/80/Localization" stroke="none" stroke-width="1" fill="none" fill-rule="evenodd">
        <g id="icon" transform="translate(4.000000, 5.000000)">
            <mask id="mask-2" fill="white">
                <use xlink:href="#path-1"></use>
            </mask>
            <g id="Mask">
                <use fill="black" fill-opacity="1" filter="url(#filter-3)" xlink:href="#path-1"></use>
                <use fill="#FF2752" fill-rule="evenodd" xlink:href="#path-1"></use>
            </g>
            <g id="Fill-1" mask="url(#mask-2)">
                <use fill="#000000" fill-rule="evenodd" xlink:href="#path-4"></use>
                <use fill="black" fill-opacity="1" filter="url(#filter-5)" xlink:href="#path-4"></use>
            </g>
        </g>
    </g>
</svg>

<svg height="80" viewBox="0 0 80 80" width="80" xmlns="http://www.w3.org/2000/svg" xmlns:xlink="http://www.w3.org/1999/xlink"><defs><path id="a" d="m49.6299 61.9302c2.85-5.37 5.84-13.5 6.24-24.43h10.43c-.88 10.74-7.45 19.88-16.67 24.43zm-10.71-24.43h11.94c-.57 14.31-6.06 23.35-8.75 26.95-1.04.21-2.11.36-3.19.43zm-18.269 23c-.221-.12-.431-.26-.641-.4l-6.98.95-6.79.92 1.38-7.09 1.47-7.54c-.23-.49-.439-.98-.63-1.48-1.03-2.63-1.69-5.43-1.92-8.36h10.43c.4 10.93 3.39 19.06 6.25 24.43-.88-.43-1.74-.9-2.569-1.43zm2.559-52.43c-2.85 5.37-5.84 13.5-6.24 24.43h-10.43c.88-10.74 7.45-19.88 16.67-24.43zm10.71 24.43h-11.94c.57-14.31 6.06-23.35 8.75-26.95 1.04-.21 2.11-.36 3.19-.43zm32.38 0h-10.43c-.4-10.93-3.39-19.06-6.24-24.43 9.22 4.55 15.79 13.69 16.67 24.43zm-27.38-27.38c1.09.07 2.15.22 3.2.43h.01c2.69 3.58 8.16 12.56 8.73 26.95h-11.94zm-5 32.38v27.38c-1.09-.07-2.15-.22-3.2-.43h-.01c-2.69-3.58-8.16-12.56-8.73-26.95zm11.01-36.46c-.42-.1-.84-.2-1.26-.29-2.34-.49-4.76-.75-7.25-.75s-4.91.26-7.25.75c-.42.09-.84.19-1.26.29-15.22 3.8-26.49 17.57-26.49 33.96 0 4.55.87 8.91 2.46 12.9l-3.88 19.96 18.901-2.56c2.779 1.62 5.809 2.86 9.009 3.66.42.1.84.2 1.26.29 2.34.49 4.76.75 7.25.75s4.91-.26 7.25-.75c.42-.09.84-.19 1.26-.29 15.221-3.8 26.49-17.57 26.49-33.96s-11.269-30.16-26.49-33.96z"/><filter id="b" height="102.9%" width="105.6%" x="-1.4%" y="-1.4%"><feOffset dx="2" dy="0" in="SourceAlpha" result="shadowOffsetOuter1"/><feColorMatrix in="shadowOffsetOuter1" type="matrix" values="0 0 0 0 0.0901960784   0 0 0 0 0.882352941   0 0 0 0 0.996078431  0 0 0 1 0"/></filter><path id="c" d="m51.6299 61.9302c2.85-5.37 5.84-13.5 6.24-24.43h10.43c-.88 10.74-7.45 19.88-16.67 24.43zm-10.71-24.43h11.94c-.57 14.31-6.06 23.35-8.75 26.95-1.04.21-2.11.36-3.19.43zm-18.269 23c-.221-.12-.431-.26-.641-.4l-6.98.95-6.79.92 1.38-7.09 1.47-7.54c-.23-.49-.439-.98-.63-1.48-1.03-2.63-1.69-5.43-1.92-8.36h10.43c.4 10.93 3.39 19.06 6.25 24.43-.88-.43-1.74-.9-2.569-1.43zm2.559-52.43c-2.85 5.37-5.84 13.5-6.24 24.43h-10.43c.88-10.74 7.45-19.88 16.67-24.43zm10.71 24.43h-11.94c.57-14.31 6.06-23.35 8.75-26.95 1.04-.21 2.11-.36 3.19-.43zm32.38 0h-10.43c-.4-10.93-3.39-19.06-6.24-24.43 9.22 4.55 15.79 13.69 16.67 24.43zm-27.38-27.38c1.09.07 2.15.22 3.2.43h.01c2.69 3.58 8.16 12.56 8.73 26.95h-11.94zm-5 32.38v27.38c-1.09-.07-2.15-.22-3.2-.43h-.01c-2.69-3.58-8.16-12.56-8.73-26.95zm11.01-36.46c-.42-.1-.84-.2-1.26-.29-2.34-.49-4.76-.75-7.25-.75s-4.91.26-7.25.75c-.42.09-.84.19-1.26.29-15.22 3.8-26.49 17.57-26.49 33.96 0 4.55.87 8.91 2.46 12.9l-3.88 19.96 18.901-2.56c2.779 1.62 5.809 2.86 9.009 3.66.42.1.84.2 1.26.29 2.34.49 4.76.75 7.25.75s4.91-.26 7.25-.75c.42-.09.84-.19 1.26-.29 15.221-3.8 26.49-17.57 26.49-33.96s-11.269-30.16-26.49-33.96z"/><filter id="d" height="101.4%" width="101.4%" x="-.7%" y="-.7%"><feOffset dx="1" dy="0" in="SourceAlpha" result="shadowOffsetInner1"/><feComposite in="shadowOffsetInner1" in2="SourceAlpha" k2="-1" k3="1" operator="arithmetic" result="shadowInnerInner1"/><feColorMatrix in="shadowInnerInner1" type="matrix" values="0 0 0 0 1   0 0 0 0 0.152941176   0 0 0 0 0.321568627  0 0 0 0.5 0"/></filter><mask id="e" fill="#fff"><use fill="#fff" fill-rule="evenodd" xlink:href="#a"/></mask></defs><g fill="none" fill-rule="evenodd" transform="translate(4 5)"><use fill="#000" filter="url(#b)" xlink:href="#a"/><use fill="#ff2752" fill-rule="evenodd" xlink:href="#a"/><g fill="#000" mask="url(#e)"><use fill-rule="evenodd" xlink:href="#c"/><use filter="url(#d)" xlink:href="#c"/></g></g></svg>
